build/TerriaJS/images/icons/zoom-in.svg

<svg width="20" height="20" viewBox="0 0 20 20" xmlns="http://www.w3.org/2000/svg">
<g id="plus-20">
<path id="Combined Shape" fill-rule="evenodd" clip-rule="evenodd" d="M10 4C9.44772 4 9 4.44772 9 5V9H5C4.44772 9 4 9.44772 4 10C4 10.5523 4.44772 11 5 11H9V15C9 15.5523 9.44772 16 10 16C10.5523 16 11 15.5523 11 15V11H15C15.5523 11 16 10.5523 16 10C16 9.44772 15.5523 9 15 9H11V5C11 4.44772 10.5523 4 10 4Z" />
</g>
</svg>

<svg xmlns="http://www.w3.org/2000/svg" width="20" height="20">
    <path fill-rule="evenodd" d="M10 4a1 1 0 0 0-1 1v4H5a1 1 0 0 0 0 2h4v4a1 1 0 1 0 2 0v-4h4a1 1 0 1 0 0-2h-4V5a1 1 0 0 0-1-1" clip-rule="evenodd"/>
</svg>
